!!!SOCIAL_FUNCTION:	songs used in the treatment of the sick
!!!PDT:	1922
!!!OTL: No_62_Song_Used_in_Treatment_of_Sick_(k).krn
!!!REG: Southwest
!!!LANG: Non-Tone
!!!LING_GROUP: Uto-Aztecan
**kern
*staff1
=1-
*clefG2
*k[b-e-a-d-g-]
*M2/4
2e-/
=2
[2f/
=3
8f/L]
8e-/J
4e-/
=4
4.f/
8e-/
=5||
*M3/4
8f/L
8d-/J
8B-/L
8B-/J
8B-/L
8B-/J
=6||
*M2/4
8e-/L
8e-/J
8e-/L
8d-/J
=7
8e-/L
8d-/J
8B-/L
8B-/J
=8
2B-/
=9
16e-/LK
8.d-/J
8d-/L
8B-/J
=10
8d-/L
8B-/J
8B-/L
8B-/J
=11
8B-/L
8B-/J
4B-/
=12
2B-/
=13!|:
8f/L
8f/J
8f/L
8f/J
=14
2f/
=15||
*M3/4
8b-/L
8f/J
8f/L
8f/J
4e-/
=16||
*M2/4
4.b-\
8f/
=17
4b-;\
8e-/L
16e-/L
16d-/JJ
=18||
*M3/4
8e-/L
8d-/J
8B-/L
8B-/J
4B-/
=19||
*M2/4
2B-/
=20
=
*M3/4
8d-/L
8B-/J
8B-/L
8B-/J
4B-/
=21
2d-/
8d-/L
8B-/J
=22
8B-/L
8B-/J
8B-/L
8B-/J
4B-/
=23||
*M2/4
8d-/L
8B-/J
8B-/L
8B-/J
=24
8B-/L
8B-/J
4B-/
=25
2B-/
==:|!
*-
